X: 11920
T: Empress Clog, The
R: hornpipe
M: 4/4
K: Dminor
A2|(d>.e)(d>.^c) (d>.A)(F>.D)|(^C>.E)(G>._B) A>^ce>g|_b>ab>g e>^cA>G|
F>GE>F D2A2|d>ed>^c d>AF>D|^C>EG>_B A>^ce>g|_b>ab>g e>^cA>c|d2f2d2:|
K:D Major
d2|(d>.b)(b>.b) (b>.a)(a>.c)|d>d'd'>d' e'>d'a>f|g>be>g c>eA>c|
f>ad>f A>dF>A|d>bb>b b>aa>c|d>d'd'>d' e'>d'a>f|g>be>g c>eA>c|d2f2d2:|

